X:186
T:Wooburn Abbey. THO5.186
M:6/8
L:1/8
B:Thompson's Complete Collection of 200 Favourite Dances Vol.5
F:https://www.libraryofdance.org/manuals/1780c-Thompson-Compleat-5.pdf
Z:vmp. Peter Dunk 2024
Q:3/8=100
K:Bb
BAB FBd|c2c c2e|dfB gfe|dcB AGF|
BAB FBd|c2c c2e|dfB ecA|B3 [B3B,3]:|
|:fdB D2f|g2E E2g|ecA [c2C2]e|f2D D2f|
b2B g2G|e2E c2[cC]|DFA cBA|B2[BB,] [B3B,3]:|
W:
W:Change sides & back again ./.
W:lead down 2 Couples, up again & cast off ./:
W:Allemand with your right hand then with your left :/.
W:Hands 6 quite round :/:

